icons/svg/finka.svg

<svg xmlns="http://www.w3.org/2000/svg" viewBox="0 0 350 350"><switch><g><path fill="#fcae1d" d="M79.677 270.033h190.912V111.901l-46.815-32.78H79.677z"/><path fill="#c98e2b" d="M60.095 128.904l28.625-10.606-18.836 56.279 70.087-46.268-50.516 91.401 41.635-34.498-42.125 81.492 40.141-45.281 66.819 48.61 74.664-80.955-42.356 84.724h8.322l28.637-20.071-11.259 35.883H60.095z"/><path fill="#231f20" d="M270.589 270.033H79.677V79.121h144.097l-11.885-8.322H72.31v207.556h207.556V118.397l-9.277-6.496z"/><path fill="#fff" d="M279.866 118.397v159.958H72.31V70.799h139.579L195.81 59.54H60.095v230.074h230.074V125.611z"/><g><path d="M116.46 234.966l-24.394 36.551h101.096l8.801-12.238 61.435-90.969v-32.716l8.036-10.667-7.741-16.552-14.104-1.836 5.487-7.098V95.78l-15.493-13.249-9.635-2.09-5.935-16.154-20.376-2.907-8.138-11.779-13.982.061-2.968-5.874-21.457-8.873-8.159 22.926-33.45 36.143 5.956 55.724 19.336 41.446-24.315 43.812z" fill="#231f20"/><g fill="#fff"><path d="M250.947 152.12l8.207-10.894zM259.154 141.226v24.311l-57.192 93.742 61.435-90.969v-32.716zM263.397 135.594l8.036-10.667-8.036 10.667z"/><path d="M259.154 141.226l12.279-16.299-7.741-16.552-14.104-1.836 5.487-7.098V95.78l-15.493-13.249-9.635-2.09-5.935-16.154-20.376-2.907-8.138-11.779-13.982.061-2.968-5.874-19.992-8.293-1.465-.579-8.159 22.926-33.45 36.143 5.956 55.724 19.336 41.446-24.313 43.812 28.718-40.141 13.625 6.527-15.234-9.697-17.523-40.968-6.119-55.316 32.285-35.744 6.841-19.333 9.828 3.382 6.48 3.234 1.84 3.792-2.652.612-23.905 39.651 8.24 14.767 11.259 1.632c5.122 7.186 7.766 13.632 9.219 18.112 4.742 14.616 3.889 30.102 3.427 38.509-.24 4.352-.618 7.608-.245 7.669.705.116 3.795-11.245 4.786-22.928a97.878 97.878 0 00-.951-24.147l10.769 3.753 7.424 15.338 18.479 1.917 5.099 10.402 4.528-3.051-4.65-9.717 21.988-33.41 10.688 2.774 4.487 12.34-14.244 27.193 8.206-10.893zm-96.272-38.429l-6.69-12.238 20.968-35.001 15.501-1.632 7.995 10.361-26.516 38.509h-11.258zm23.049 16.317l-8.893-12.646 28.555-39.161 15.093.449 5.222 13.951-28.27 40.385-11.707-2.978zm38.549 20.07h-16.317l-7.057-12.891 28.27-41.364 11.993 2.284 9.056 10.198-25.945 41.773z"/></g></g><g><path fill="#fff" d="M269.597 92.893l-10.341-42.588-23.435 11.871 5.935 32.124z"/><path d="M261.203 58.321l-24.03 11.173 1.433 7.757 24.847-9.662-2.25-9.268z" fill="#231f20"/><path fill="#fcae1d" d="M238.606 77.252l24.847-9.662 6.144 25.303-27.841 1.407z"/><path fill="#fff" d="M279.866 107.035l10.303.902V88.596l-10.303 2.812z"/><path fill="#231f20" d="M270.589 93.941v12.283l9.277.811V91.408z"/><path fill="#fcae1d" d="M270.589 93.941l-15.514 4.235v1.265l-1.151 1.494 6.252 4.378 10.413.911zM270.589 106.224l-10.413-.911"/><g fill="#050708"><path d="M227.091 45.768l10.647 5.833-8.281 15.583zM287.791 42.341l-14.114 28.458L294.4 54.253l-6.609-11.912M289.607 150.933l7.893 5.324-81.566 100.351 73.673-105.675z"/></g></g><g><path fill="#fff" d="M251.926 141.226l-81.211 142.733-42.67 5.655 35.653-60.114-53.194 69.92H79.256l100.76-100.107-12.973 48.299z"/><path fill="#231f20" d="M110.504 299.42l8.016 5.711 16.203-26.776 28.975-48.855z"/><path fill="#fff" d="M60.573 258.259l32.125-42.526-32.125 33.226zM127.148 198.457l-59.966 89.174-6.609-9.276z"/></g></g></switch></svg>

<svg xmlns="http://www.w3.org/2000/svg" viewBox="0 0 350 350"><switch><g><path fill="#fcae1d" d="M79.677 270.033L270.589 270.033 270.589 111.901 223.774 79.121 79.677 79.121z"/><path fill="#c98e2b" d="M60.095 128.904L88.72 118.298 69.884 174.577 139.971 128.309 89.455 219.71 131.09 185.212 88.965 266.704 129.106 221.423 195.925 270.033 270.589 189.078 228.233 273.802 236.555 273.802 265.192 253.731 253.933 289.614 60.095 289.614z"/><path fill="#231f20" d="M270.589 270.033L79.677 270.033 79.677 79.121 223.774 79.121 211.889 70.799 72.31 70.799 72.31 278.355 279.866 278.355 279.866 118.397 270.589 111.901z"/><path fill="#fff" d="M279.866 118.397L279.866 278.355 72.31 278.355 72.31 70.799 211.889 70.799 195.81 59.54 60.095 59.54 60.095 289.614 290.169 289.614 290.169 125.611z"/><path d="M116.46,234.966l-24.394,36.551c101.096,0,101.096,0,101.096,0l8.801-12.238l61.435-90.969 v-32.716l8.036-10.667l-7.741-16.552l-14.104-1.836l5.487-7.098V95.78l-15.493-13.249l-9.635-2.09l-5.935-16.154l-20.376-2.907 l-8.138-11.779l-13.982,0.061l-2.968-5.874l-21.457-8.873l-8.159,22.926l-33.45,36.143l5.956,55.724l19.336,41.446 L116.46,234.966z" fill="#231f20"/><g fill="#fff"><path d="M250.947 152.12L259.154 141.226 259.154 141.226zM259.154 141.226L259.154 165.537 201.962 259.279 263.397 168.31 263.397 135.594zM263.397 135.594L271.433 124.927 263.397 135.594z"/><path d="M259.154,141.226l12.279-16.299l-7.741-16.552l-14.104-1.836l5.487-7.098V95.78l-15.493-13.249 l-9.635-2.09l-5.935-16.154l-20.376-2.907l-8.138-11.779l-13.982,0.061l-2.968-5.874l-19.992-8.293l-1.465-0.579l-8.159,22.926 l-33.45,36.143l5.956,55.724l19.336,41.446l-24.313,43.812l28.718-40.141l13.625,6.527l-15.234-9.697l-17.523-40.968 l-6.119-55.316l32.285-35.744l6.841-19.333l9.828,3.382l6.48,3.234l1.84,3.792l-2.652,0.612l-23.905,39.651l8.24,14.767 l11.259,1.632c5.122,7.186,7.766,13.632,9.219,18.112c4.742,14.616,3.889,30.102,3.427,38.509 c-0.24,4.352-0.618,7.608-0.245,7.669c0.705,0.116,3.795-11.245,4.786-22.928c0.86-10.141-0.03-18.545-0.951-24.147 l10.769,3.753l7.424,15.338l18.479,1.917l5.099,10.402l4.528-3.051l-4.65-9.717l21.988-33.41l10.688,2.774l4.487,12.34 l-14.244,27.193L259.154,141.226L259.154,141.226z M162.882,102.797l-6.69-12.238l20.968-35.001l15.501-1.632l7.995,10.361 l-26.516,38.509H162.882z M185.931,119.114l-8.893-12.646l28.555-39.161l15.093,0.449l5.222,13.951l-28.27,40.385 L185.931,119.114z M224.48,139.184h-16.317l-7.057-12.891l28.27-41.364l11.993,2.284l9.056,10.198L224.48,139.184z"/></g><path fill="#fff" d="M269.597 92.893L259.256 50.305 235.821 62.176 241.756 94.3z"/><path d="M261.203,58.321l-24.03,11.173c1.433,7.757,1.433,7.757,1.433,7.757l24.847-9.662 L261.203,58.321z" fill="#231f20"/><path fill="#fcae1d" d="M238.606 77.252L263.453 67.59 269.597 92.893 241.756 94.3z"/><path fill="#fff" d="M279.866 107.035L290.169 107.937 290.169 88.596 279.866 91.408z"/><path fill="#231f20" d="M270.589 93.941L270.589 106.224 279.866 107.035 279.866 91.408z"/><path fill="#fcae1d" d="M270.589 93.941L255.075 98.176 255.075 99.441 253.924 100.935 260.176 105.313 270.589 106.224zM270.589 106.224L260.176 105.313"/><path d="M227.091 45.768L237.738 51.601 229.457 67.184zM287.791 42.341L273.677 70.799 294.4 54.253 287.791 42.341M289.607 150.933l7.893 5.324c-81.566 100.351-81.566 100.351-81.566 100.351L289.607 150.933z" fill="#050708"/><path fill="#fff" d="M251.926 141.226L170.715 283.959 128.045 289.614 163.698 229.5 110.504 299.42 79.256 299.42 180.016 199.313 167.043 247.612z"/><path fill="#231f20" d="M110.504 299.42L118.52 305.131 134.723 278.355 163.698 229.5z"/><path fill="#fff" d="M60.573 258.259L92.698 215.733 60.573 248.959zM127.148 198.457L67.182 287.631 60.573 278.355z"/></g></switch></svg>
